images/preferences/1.svg

<svg width="50" height="49" viewBox="0 0 50 49" fill="none" xmlns="http://www.w3.org/2000/svg">
<mask id="path-1-outside-1" maskUnits="userSpaceOnUse" x="-0.996094" y="0" width="51" height="49" fill="black">
<rect fill="white" x="-0.996094" width="51" height="49"/>
<path d="M46.5695 26.9228V19.1438L48.718 17.4344C48.8188 17.3581 48.899 17.2591 48.9516 17.1461C49.0043 17.033 49.0278 16.9093 49.0202 16.7855C49.0116 16.6612 48.974 16.5404 48.9104 16.4322C48.8467 16.3239 48.7586 16.231 48.6526 16.1604L24.9621 1.12465C24.8273 1.04319 24.6716 1 24.5128 1C24.3539 1 24.1982 1.04319 24.0635 1.12465L0.372913 16.1604C0.266941 16.231 0.178826 16.3239 0.115166 16.4322C0.0515049 16.5404 0.0139464 16.6612 0.00530104 16.7855C-0.0022982 16.9093 0.0212373 17.033 0.0738858 17.1461C0.126534 17.2591 0.206722 17.3581 0.30756 17.4344L8.99137 24.3192V24.7703C7.89663 27.0231 7.33844 29.4853 7.35804 31.9751C7.37765 34.4649 7.97454 36.9187 9.10463 39.155C10.2347 41.3913 11.8691 43.353 13.887 44.8952C15.9049 46.4374 18.2548 47.5207 20.7629 48.0649C23.2711 48.6092 25.8734 48.6005 28.3776 48.0396C30.8819 47.4786 33.224 46.3797 35.2309 44.8241C37.2378 43.2685 38.8582 41.2959 39.9724 39.0521C41.0866 36.8083 41.666 34.3507 41.668 31.8608C41.6745 29.409 41.1164 26.9867 40.0341 24.7703V24.3192L44.9356 20.4337V26.9228L42.9342 30.8004C42.7475 31.1627 42.6595 31.5653 42.6787 31.9698C42.6979 32.3743 42.8236 32.7674 43.0438 33.1115C43.264 33.4557 43.5715 33.7396 43.9369 33.9363C44.3024 34.1329 44.7137 34.2357 45.1317 34.2349H46.3734C46.7914 34.2357 47.2027 34.1329 47.5682 33.9363C47.9336 33.7396 48.2411 33.4557 48.4613 33.1115C48.6815 32.7674 48.8072 32.3743 48.8264 31.9698C48.8456 31.5653 48.7576 31.1627 48.5709 30.8004L46.5695 26.9228ZM17.9938 31.0695C18.0213 27.9049 18.607 24.7682 19.7256 21.7948C21.3164 21.6424 22.9142 21.5684 24.5128 21.5732C26.1113 21.5684 27.7091 21.6424 29.2999 21.7948C30.4185 24.7682 31.0042 27.9049 31.0317 31.0695H17.9938ZM31.0317 32.6522C30.997 35.0919 30.6541 37.5183 30.0106 39.8772C26.4487 38.6849 22.5768 38.6849 19.0149 39.8772C18.3714 37.5183 18.0285 35.0919 17.9938 32.6522H31.0317ZM24.5128 19.9905C18.9251 19.9905 13.3128 20.8531 10.6252 22.507V17.6165C10.6252 16.5402 15.5267 14.451 24.5128 14.451C33.4988 14.451 38.4003 16.5402 38.4003 17.6165V22.507C35.7127 20.8531 30.1005 19.9905 24.5128 19.9905ZM17.8957 22.0085C16.9128 24.936 16.3949 27.9912 16.3599 31.0695H9.01588C9.11684 29.0662 9.63655 27.1035 10.5435 25.3005C10.5984 25.1922 10.6264 25.073 10.6252 24.9523V24.7386C10.6252 23.971 13.1576 22.6811 17.8957 22.0085ZM9.03221 32.6522H16.3599C16.3986 35.289 16.7801 37.9105 17.4955 40.4549C16.1585 41.0395 14.904 41.7867 13.7622 42.6786C10.9248 40.0421 9.23303 36.4559 9.03221 32.6522ZM15.0202 43.7311C15.9394 43.036 16.937 42.444 17.9938 41.9664C18.546 43.5616 19.3869 45.0488 20.4772 46.3584C18.4959 45.8431 16.6406 44.9499 15.0202 43.7311ZM24.5128 46.8965C22.6829 46.8965 20.7795 44.8549 19.5051 41.3887C22.7474 40.2914 26.2781 40.2914 29.5205 41.3887C28.2461 44.8549 26.3426 46.8965 24.5128 46.8965ZM28.5483 46.3584C29.6386 45.0488 30.4795 43.5616 31.0317 41.9664C32.0885 42.444 33.0861 43.036 34.0053 43.7311C32.3849 44.9499 30.5297 45.8431 28.5483 46.3584ZM35.2634 42.6786C34.1215 41.7867 32.867 41.0395 31.5301 40.4549C32.2454 37.9105 32.6269 35.289 32.6656 32.6522H39.9933C39.7925 36.4559 38.1007 40.0421 35.2634 42.6786ZM32.6656 31.0695C32.6306 27.9912 32.1128 24.936 31.1298 22.0085C35.8679 22.6811 38.4003 23.971 38.4003 24.7386V24.9523C38.3991 25.073 38.4271 25.1922 38.482 25.3005C39.389 27.1035 39.9087 29.0662 40.0096 31.0695H32.6656ZM40.0341 22.2775V17.6165C40.0341 14.4985 32.2244 12.8683 24.5128 12.8683C16.8011 12.8683 8.99137 14.4985 8.99137 17.6165V22.2775L2.2028 16.8963L24.5128 2.73901L46.8227 16.8963L40.0341 22.2775ZM47.0678 32.2802C46.9963 32.3961 46.8943 32.4916 46.7724 32.5569C46.6504 32.6222 46.5127 32.6551 46.3734 32.6522H45.1317C44.9924 32.6551 44.8547 32.6222 44.7327 32.5569C44.6108 32.4916 44.5088 32.3961 44.4373 32.2802C44.3629 32.1651 44.32 32.0333 44.3129 31.8976C44.3058 31.7619 44.3345 31.6266 44.3965 31.5047L45.7526 28.8853L47.1086 31.5047C47.1706 31.6266 47.1994 31.7619 47.1922 31.8976C47.1851 32.0333 47.1422 32.1651 47.0678 32.2802Z"/>
</mask>
<path d="M46.5695 26.9228V19.1438L48.718 17.4344C48.8188 17.3581 48.899 17.2591 48.9516 17.1461C49.0043 17.033 49.0278 16.9093 49.0202 16.7855C49.0116 16.6612 48.974 16.5404 48.9104 16.4322C48.8467 16.3239 48.7586 16.231 48.6526 16.1604L24.9621 1.12465C24.8273 1.04319 24.6716 1 24.5128 1C24.3539 1 24.1982 1.04319 24.0635 1.12465L0.372913 16.1604C0.266941 16.231 0.178826 16.3239 0.115166 16.4322C0.0515049 16.5404 0.0139464 16.6612 0.00530104 16.7855C-0.0022982 16.9093 0.0212373 17.033 0.0738858 17.1461C0.126534 17.2591 0.206722 17.3581 0.30756 17.4344L8.99137 24.3192V24.7703C7.89663 27.0231 7.33844 29.4853 7.35804 31.9751C7.37765 34.4649 7.97454 36.9187 9.10463 39.155C10.2347 41.3913 11.8691 43.353 13.887 44.8952C15.9049 46.4374 18.2548 47.5207 20.7629 48.0649C23.2711 48.6092 25.8734 48.6005 28.3776 48.0396C30.8819 47.4786 33.224 46.3797 35.2309 44.8241C37.2378 43.2685 38.8582 41.2959 39.9724 39.0521C41.0866 36.8083 41.666 34.3507 41.668 31.8608C41.6745 29.409 41.1164 26.9867 40.0341 24.7703V24.3192L44.9356 20.4337V26.9228L42.9342 30.8004C42.7475 31.1627 42.6595 31.5653 42.6787 31.9698C42.6979 32.3743 42.8236 32.7674 43.0438 33.1115C43.264 33.4557 43.5715 33.7396 43.9369 33.9363C44.3024 34.1329 44.7137 34.2357 45.1317 34.2349H46.3734C46.7914 34.2357 47.2027 34.1329 47.5682 33.9363C47.9336 33.7396 48.2411 33.4557 48.4613 33.1115C48.6815 32.7674 48.8072 32.3743 48.8264 31.9698C48.8456 31.5653 48.7576 31.1627 48.5709 30.8004L46.5695 26.9228ZM17.9938 31.0695C18.0213 27.9049 18.607 24.7682 19.7256 21.7948C21.3164 21.6424 22.9142 21.5684 24.5128 21.5732C26.1113 21.5684 27.7091 21.6424 29.2999 21.7948C30.4185 24.7682 31.0042 27.9049 31.0317 31.0695H17.9938ZM31.0317 32.6522C30.997 35.0919 30.6541 37.5183 30.0106 39.8772C26.4487 38.6849 22.5768 38.6849 19.0149 39.8772C18.3714 37.5183 18.0285 35.0919 17.9938 32.6522H31.0317ZM24.5128 19.9905C18.9251 19.9905 13.3128 20.8531 10.6252 22.507V17.6165C10.6252 16.5402 15.5267 14.451 24.5128 14.451C33.4988 14.451 38.4003 16.5402 38.4003 17.6165V22.507C35.7127 20.8531 30.1005 19.9905 24.5128 19.9905ZM17.8957 22.0085C16.9128 24.936 16.3949 27.9912 16.3599 31.0695H9.01588C9.11684 29.0662 9.63655 27.1035 10.5435 25.3005C10.5984 25.1922 10.6264 25.073 10.6252 24.9523V24.7386C10.6252 23.971 13.1576 22.6811 17.8957 22.0085ZM9.03221 32.6522H16.3599C16.3986 35.289 16.7801 37.9105 17.4955 40.4549C16.1585 41.0395 14.904 41.7867 13.7622 42.6786C10.9248 40.0421 9.23303 36.4559 9.03221 32.6522ZM15.0202 43.7311C15.9394 43.036 16.937 42.444 17.9938 41.9664C18.546 43.5616 19.3869 45.0488 20.4772 46.3584C18.4959 45.8431 16.6406 44.9499 15.0202 43.7311ZM24.5128 46.8965C22.6829 46.8965 20.7795 44.8549 19.5051 41.3887C22.7474 40.2914 26.2781 40.2914 29.5205 41.3887C28.2461 44.8549 26.3426 46.8965 24.5128 46.8965ZM28.5483 46.3584C29.6386 45.0488 30.4795 43.5616 31.0317 41.9664C32.0885 42.444 33.0861 43.036 34.0053 43.7311C32.3849 44.9499 30.5297 45.8431 28.5483 46.3584ZM35.2634 42.6786C34.1215 41.7867 32.867 41.0395 31.5301 40.4549C32.2454 37.9105 32.6269 35.289 32.6656 32.6522H39.9933C39.7925 36.4559 38.1007 40.0421 35.2634 42.6786ZM32.6656 31.0695C32.6306 27.9912 32.1128 24.936 31.1298 22.0085C35.8679 22.6811 38.4003 23.971 38.4003 24.7386V24.9523C38.3991 25.073 38.4271 25.1922 38.482 25.3005C39.389 27.1035 39.9087 29.0662 40.0096 31.0695H32.6656ZM40.0341 22.2775V17.6165C40.0341 14.4985 32.2244 12.8683 24.5128 12.8683C16.8011 12.8683 8.99137 14.4985 8.99137 17.6165V22.2775L2.2028 16.8963L24.5128 2.73901L46.8227 16.8963L40.0341 22.2775ZM47.0678 32.2802C46.9963 32.3961 46.8943 32.4916 46.7724 32.5569C46.6504 32.6222 46.5127 32.6551 46.3734 32.6522H45.1317C44.9924 32.6551 44.8547 32.6222 44.7327 32.5569C44.6108 32.4916 44.5088 32.3961 44.4373 32.2802C44.3629 32.1651 44.32 32.0333 44.3129 31.8976C44.3058 31.7619 44.3345 31.6266 44.3965 31.5047L45.7526 28.8853L47.1086 31.5047C47.1706 31.6266 47.1994 31.7619 47.1922 31.8976C47.1851 32.0333 47.1422 32.1651 47.0678 32.2802Z" fill="url(#paint0_linear)"/>
<path d="M46.5695 26.9228V19.1438L48.718 17.4344C48.8188 17.3581 48.899 17.2591 48.9516 17.1461C49.0043 17.033 49.0278 16.9093 49.0202 16.7855C49.0116 16.6612 48.974 16.5404 48.9104 16.4322C48.8467 16.3239 48.7586 16.231 48.6526 16.1604L24.9621 1.12465C24.8273 1.04319 24.6716 1 24.5128 1C24.3539 1 24.1982 1.04319 24.0635 1.12465L0.372913 16.1604C0.266941 16.231 0.178826 16.3239 0.115166 16.4322C0.0515049 16.5404 0.0139464 16.6612 0.00530104 16.7855C-0.0022982 16.9093 0.0212373 17.033 0.0738858 17.1461C0.126534 17.2591 0.206722 17.3581 0.30756 17.4344L8.99137 24.3192V24.7703C7.89663 27.0231 7.33844 29.4853 7.35804 31.9751C7.37765 34.4649 7.97454 36.9187 9.10463 39.155C10.2347 41.3913 11.8691 43.353 13.887 44.8952C15.9049 46.4374 18.2548 47.5207 20.7629 48.0649C23.2711 48.6092 25.8734 48.6005 28.3776 48.0396C30.8819 47.4786 33.224 46.3797 35.2309 44.8241C37.2378 43.2685 38.8582 41.2959 39.9724 39.0521C41.0866 36.8083 41.666 34.3507 41.668 31.8608C41.6745 29.409 41.1164 26.9867 40.0341 24.7703V24.3192L44.9356 20.4337V26.9228L42.9342 30.8004C42.7475 31.1627 42.6595 31.5653 42.6787 31.9698C42.6979 32.3743 42.8236 32.7674 43.0438 33.1115C43.264 33.4557 43.5715 33.7396 43.9369 33.9363C44.3024 34.1329 44.7137 34.2357 45.1317 34.2349H46.3734C46.7914 34.2357 47.2027 34.1329 47.5682 33.9363C47.9336 33.7396 48.2411 33.4557 48.4613 33.1115C48.6815 32.7674 48.8072 32.3743 48.8264 31.9698C48.8456 31.5653 48.7576 31.1627 48.5709 30.8004L46.5695 26.9228ZM17.9938 31.0695C18.0213 27.9049 18.607 24.7682 19.7256 21.7948C21.3164 21.6424 22.9142 21.5684 24.5128 21.5732C26.1113 21.5684 27.7091 21.6424 29.2999 21.7948C30.4185 24.7682 31.0042 27.9049 31.0317 31.0695H17.9938ZM31.0317 32.6522C30.997 35.0919 30.6541 37.5183 30.0106 39.8772C26.4487 38.6849 22.5768 38.6849 19.0149 39.8772C18.3714 37.5183 18.0285 35.0919 17.9938 32.6522H31.0317ZM24.5128 19.9905C18.9251 19.9905 13.3128 20.8531 10.6252 22.507V17.6165C10.6252 16.5402 15.5267 14.451 24.5128 14.451C33.4988 14.451 38.4003 16.5402 38.4003 17.6165V22.507C35.7127 20.8531 30.1005 19.9905 24.5128 19.9905ZM17.8957 22.0085C16.9128 24.936 16.3949 27.9912 16.3599 31.0695H9.01588C9.11684 29.0662 9.63655 27.1035 10.5435 25.3005C10.5984 25.1922 10.6264 25.073 10.6252 24.9523V24.7386C10.6252 23.971 13.1576 22.6811 17.8957 22.0085ZM9.03221 32.6522H16.3599C16.3986 35.289 16.7801 37.9105 17.4955 40.4549C16.1585 41.0395 14.904 41.7867 13.7622 42.6786C10.9248 40.0421 9.23303 36.4559 9.03221 32.6522ZM15.0202 43.7311C15.9394 43.036 16.937 42.444 17.9938 41.9664C18.546 43.5616 19.3869 45.0488 20.4772 46.3584C18.4959 45.8431 16.6406 44.9499 15.0202 43.7311ZM24.5128 46.8965C22.6829 46.8965 20.7795 44.8549 19.5051 41.3887C22.7474 40.2914 26.2781 40.2914 29.5205 41.3887C28.2461 44.8549 26.3426 46.8965 24.5128 46.8965ZM28.5483 46.3584C29.6386 45.0488 30.4795 43.5616 31.0317 41.9664C32.0885 42.444 33.0861 43.036 34.0053 43.7311C32.3849 44.9499 30.5297 45.8431 28.5483 46.3584ZM35.2634 42.6786C34.1215 41.7867 32.867 41.0395 31.5301 40.4549C32.2454 37.9105 32.6269 35.289 32.6656 32.6522H39.9933C39.7925 36.4559 38.1007 40.0421 35.2634 42.6786ZM32.6656 31.0695C32.6306 27.9912 32.1128 24.936 31.1298 22.0085C35.8679 22.6811 38.4003 23.971 38.4003 24.7386V24.9523C38.3991 25.073 38.4271 25.1922 38.482 25.3005C39.389 27.1035 39.9087 29.0662 40.0096 31.0695H32.6656ZM40.0341 22.2775V17.6165C40.0341 14.4985 32.2244 12.8683 24.5128 12.8683C16.8011 12.8683 8.99137 14.4985 8.99137 17.6165V22.2775L2.2028 16.8963L24.5128 2.73901L46.8227 16.8963L40.0341 22.2775ZM47.0678 32.2802C46.9963 32.3961 46.8943 32.4916 46.7724 32.5569C46.6504 32.6222 46.5127 32.6551 46.3734 32.6522H45.1317C44.9924 32.6551 44.8547 32.6222 44.7327 32.5569C44.6108 32.4916 44.5088 32.3961 44.4373 32.2802C44.3629 32.1651 44.32 32.0333 44.3129 31.8976C44.3058 31.7619 44.3345 31.6266 44.3965 31.5047L45.7526 28.8853L47.1086 31.5047C47.1706 31.6266 47.1994 31.7619 47.1922 31.8976C47.1851 32.0333 47.1422 32.1651 47.0678 32.2802Z" stroke="url(#paint1_linear)" mask="url(#path-1-outside-1)"/>
<defs>
<linearGradient id="paint0_linear" x1="-6.12331" y1="-6.42854" x2="57.1643" y2="69.0064" gradientUnits="userSpaceOnUse">
<stop stop-color="#1C2D5A"/>
<stop offset="1" stop-color="#4FC3DD" stop-opacity="0.96"/>
</linearGradient>
<linearGradient id="paint1_linear" x1="24.5128" y1="1" x2="24.5128" y2="48.4668" gradientUnits="userSpaceOnUse">
<stop stop-color="#1C2D5A"/>
<stop offset="1" stop-color="#4FC3DD"/>
</linearGradient>
</defs>
</svg>

<svg width="50" height="49" fill="none" xmlns="http://www.w3.org/2000/svg"><mask id="c" maskUnits="userSpaceOnUse" x="-.996" y="0" width="51" height="49" fill="#000"><path fill="#fff" d="M-.996 0h51v49h-51z"/><path d="M46.57 26.923v-7.78l2.148-1.709a.77.77 0 0 0 .234-.288.745.745 0 0 0 .068-.36.807.807 0 0 0-.11-.354.837.837 0 0 0-.257-.272L24.963 1.125a.87.87 0 0 0-.9 0L.373 16.16a.836.836 0 0 0-.258.272.807.807 0 0 0-.11.354.745.745 0 0 0 .069.36.77.77 0 0 0 .234.288L8.99 24.32v.451a16.183 16.183 0 0 0-1.633 7.205c.02 2.49.617 4.944 1.747 7.18a16.73 16.73 0 0 0 4.782 5.74 17.399 17.399 0 0 0 6.876 3.17c2.508.544 5.11.535 7.615-.025a17.391 17.391 0 0 0 6.853-3.216 16.72 16.72 0 0 0 4.741-5.772 16.19 16.19 0 0 0 1.696-7.191 16.053 16.053 0 0 0-1.634-7.09v-.452l4.902-3.885v6.489L42.934 30.8a2.312 2.312 0 0 0 .11 2.311c.22.345.528.629.893.825.365.197.777.3 1.195.299h1.241c.418 0 .83-.102 1.195-.299a2.42 2.42 0 0 0 .893-.825 2.312 2.312 0 0 0 .11-2.311l-2.002-3.877ZM17.993 31.07a26.997 26.997 0 0 1 1.732-9.275 48.669 48.669 0 0 1 4.787-.222c1.598-.005 3.196.07 4.787.222a26.997 26.997 0 0 1 1.732 9.274H17.994Zm13.038 1.582a29.015 29.015 0 0 1-1.021 7.225 17.348 17.348 0 0 0-10.996 0 29.015 29.015 0 0 1-1.021-7.225h13.038Zm-6.52-12.662c-5.587 0-11.2.863-13.887 2.517v-4.89c0-1.077 4.902-3.166 13.888-3.166S38.4 16.541 38.4 17.616v4.891c-2.687-1.654-8.3-2.517-13.887-2.517Zm-6.616 2.019a29.513 29.513 0 0 0-1.536 9.06H9.016c.1-2.003.62-3.965 1.527-5.768a.753.753 0 0 0 .082-.349v-.213c0-.768 2.533-2.058 7.27-2.73ZM9.032 32.651h7.328c.039 2.637.42 5.258 1.136 7.803a17.364 17.364 0 0 0-3.734 2.224c-2.837-2.637-4.529-6.223-4.73-10.027Zm5.988 11.08a15.54 15.54 0 0 1 2.974-1.766 14.048 14.048 0 0 0 2.483 4.392 15.617 15.617 0 0 1-5.457-2.627Zm9.493 3.165c-1.83 0-3.734-2.042-5.008-5.508a15.647 15.647 0 0 1 10.015 0c-1.274 3.466-3.177 5.508-5.007 5.508Zm4.035-.539a14.048 14.048 0 0 0 2.484-4.392 15.54 15.54 0 0 1 2.973 1.765 15.617 15.617 0 0 1-5.457 2.627Zm6.715-3.68a17.37 17.37 0 0 0-3.733-2.223 30.477 30.477 0 0 0 1.136-7.803h7.327c-.2 3.804-1.892 7.39-4.73 10.027ZM32.666 31.07a29.51 29.51 0 0 0-1.536-9.061c4.738.672 7.27 1.962 7.27 2.73v.213c0 .121.027.24.082.348a14.45 14.45 0 0 1 1.528 5.77h-7.344Zm7.368-8.793v-4.66c0-3.119-7.81-4.749-15.521-4.749-7.712 0-15.522 1.63-15.522 4.748v4.662l-6.788-5.382L24.513 2.74l22.31 14.157-6.789 5.381Zm7.034 10.003a.778.778 0 0 1-.296.277.81.81 0 0 1-.399.095h-1.241a.81.81 0 0 1-.4-.095.778.778 0 0 1-.295-.277.78.78 0 0 1-.04-.775l1.356-2.62 1.356 2.62a.776.776 0 0 1-.041.775Z"/></mask><path d="M46.57 26.923v-7.78l2.148-1.709a.77.77 0 0 0 .234-.288.745.745 0 0 0 .068-.36.807.807 0 0 0-.11-.354.837.837 0 0 0-.257-.272L24.963 1.125a.87.87 0 0 0-.9 0L.373 16.16a.836.836 0 0 0-.258.272.807.807 0 0 0-.11.354.745.745 0 0 0 .069.36.77.77 0 0 0 .234.288L8.99 24.32v.451a16.183 16.183 0 0 0-1.633 7.205c.02 2.49.617 4.944 1.747 7.18a16.73 16.73 0 0 0 4.782 5.74 17.399 17.399 0 0 0 6.876 3.17c2.508.544 5.11.535 7.615-.025a17.391 17.391 0 0 0 6.853-3.216 16.72 16.72 0 0 0 4.741-5.772 16.19 16.19 0 0 0 1.696-7.191 16.053 16.053 0 0 0-1.634-7.09v-.452l4.902-3.885v6.489L42.934 30.8a2.312 2.312 0 0 0 .11 2.311c.22.345.528.629.893.825.365.197.777.3 1.195.299h1.241c.418 0 .83-.102 1.195-.299a2.42 2.42 0 0 0 .893-.825 2.312 2.312 0 0 0 .11-2.311l-2.002-3.877ZM17.993 31.07a26.997 26.997 0 0 1 1.732-9.275 48.669 48.669 0 0 1 4.787-.222c1.598-.005 3.196.07 4.787.222a26.997 26.997 0 0 1 1.732 9.274H17.994Zm13.038 1.582a29.015 29.015 0 0 1-1.021 7.225 17.348 17.348 0 0 0-10.996 0 29.015 29.015 0 0 1-1.021-7.225h13.038Zm-6.52-12.662c-5.587 0-11.2.863-13.887 2.517v-4.89c0-1.077 4.902-3.166 13.888-3.166S38.4 16.541 38.4 17.616v4.891c-2.687-1.654-8.3-2.517-13.887-2.517Zm-6.616 2.019a29.513 29.513 0 0 0-1.536 9.06H9.016c.1-2.003.62-3.965 1.527-5.768a.753.753 0 0 0 .082-.349v-.213c0-.768 2.533-2.058 7.27-2.73ZM9.032 32.651h7.328c.039 2.637.42 5.258 1.136 7.803a17.364 17.364 0 0 0-3.734 2.224c-2.837-2.637-4.529-6.223-4.73-10.027Zm5.988 11.08a15.54 15.54 0 0 1 2.974-1.766 14.048 14.048 0 0 0 2.483 4.392 15.617 15.617 0 0 1-5.457-2.627Zm9.493 3.165c-1.83 0-3.734-2.042-5.008-5.508a15.647 15.647 0 0 1 10.015 0c-1.274 3.466-3.177 5.508-5.007 5.508Zm4.035-.539a14.048 14.048 0 0 0 2.484-4.392 15.54 15.54 0 0 1 2.973 1.765 15.617 15.617 0 0 1-5.457 2.627Zm6.715-3.68a17.37 17.37 0 0 0-3.733-2.223 30.477 30.477 0 0 0 1.136-7.803h7.327c-.2 3.804-1.892 7.39-4.73 10.027ZM32.666 31.07a29.51 29.51 0 0 0-1.536-9.061c4.738.672 7.27 1.962 7.27 2.73v.213c0 .121.027.24.082.348a14.45 14.45 0 0 1 1.528 5.77h-7.344Zm7.368-8.793v-4.66c0-3.119-7.81-4.749-15.521-4.749-7.712 0-15.522 1.63-15.522 4.748v4.662l-6.788-5.382L24.513 2.74l22.31 14.157-6.789 5.381Zm7.034 10.003a.778.778 0 0 1-.296.277.81.81 0 0 1-.399.095h-1.241a.81.81 0 0 1-.4-.095.778.778 0 0 1-.295-.277.78.78 0 0 1-.04-.775l1.356-2.62 1.356 2.62a.776.776 0 0 1-.041.775Z" fill="url(#a)"/><path d="M46.57 26.923v-7.78l2.148-1.709a.77.77 0 0 0 .234-.288.745.745 0 0 0 .068-.36.807.807 0 0 0-.11-.354.837.837 0 0 0-.257-.272L24.963 1.125a.87.87 0 0 0-.9 0L.373 16.16a.836.836 0 0 0-.258.272.807.807 0 0 0-.11.354.745.745 0 0 0 .069.36.77.77 0 0 0 .234.288L8.99 24.32v.451a16.183 16.183 0 0 0-1.633 7.205c.02 2.49.617 4.944 1.747 7.18a16.73 16.73 0 0 0 4.782 5.74 17.399 17.399 0 0 0 6.876 3.17c2.508.544 5.11.535 7.615-.025a17.391 17.391 0 0 0 6.853-3.216 16.72 16.72 0 0 0 4.741-5.772 16.19 16.19 0 0 0 1.696-7.191 16.053 16.053 0 0 0-1.634-7.09v-.452l4.902-3.885v6.489L42.934 30.8a2.312 2.312 0 0 0 .11 2.311c.22.345.528.629.893.825.365.197.777.3 1.195.299h1.241c.418 0 .83-.102 1.195-.299a2.42 2.42 0 0 0 .893-.825 2.312 2.312 0 0 0 .11-2.311l-2.002-3.877ZM17.993 31.07a26.997 26.997 0 0 1 1.732-9.275 48.669 48.669 0 0 1 4.787-.222c1.598-.005 3.196.07 4.787.222a26.997 26.997 0 0 1 1.732 9.274H17.994Zm13.038 1.582a29.015 29.015 0 0 1-1.021 7.225 17.348 17.348 0 0 0-10.996 0 29.015 29.015 0 0 1-1.021-7.225h13.038Zm-6.52-12.662c-5.587 0-11.2.863-13.887 2.517v-4.89c0-1.077 4.902-3.166 13.888-3.166S38.4 16.541 38.4 17.616v4.891c-2.687-1.654-8.3-2.517-13.887-2.517Zm-6.616 2.019a29.513 29.513 0 0 0-1.536 9.06H9.016c.1-2.003.62-3.965 1.527-5.768a.753.753 0 0 0 .082-.349v-.213c0-.768 2.533-2.058 7.27-2.73ZM9.032 32.651h7.328c.039 2.637.42 5.258 1.136 7.803a17.364 17.364 0 0 0-3.734 2.224c-2.837-2.637-4.529-6.223-4.73-10.027Zm5.988 11.08a15.54 15.54 0 0 1 2.974-1.766 14.048 14.048 0 0 0 2.483 4.392 15.617 15.617 0 0 1-5.457-2.627Zm9.493 3.165c-1.83 0-3.734-2.042-5.008-5.508a15.647 15.647 0 0 1 10.015 0c-1.274 3.466-3.177 5.508-5.007 5.508Zm4.035-.539a14.048 14.048 0 0 0 2.484-4.392 15.54 15.54 0 0 1 2.973 1.765 15.617 15.617 0 0 1-5.457 2.627Zm6.715-3.68a17.37 17.37 0 0 0-3.733-2.223 30.477 30.477 0 0 0 1.136-7.803h7.327c-.2 3.804-1.892 7.39-4.73 10.027ZM32.666 31.07a29.51 29.51 0 0 0-1.536-9.061c4.738.672 7.27 1.962 7.27 2.73v.213c0 .121.027.24.082.348a14.45 14.45 0 0 1 1.528 5.77h-7.344Zm7.368-8.793v-4.66c0-3.119-7.81-4.749-15.521-4.749-7.712 0-15.522 1.63-15.522 4.748v4.662l-6.788-5.382L24.513 2.74l22.31 14.157-6.789 5.381Zm7.034 10.003a.778.778 0 0 1-.296.277.81.81 0 0 1-.399.095h-1.241a.81.81 0 0 1-.4-.095.778.778 0 0 1-.295-.277.78.78 0 0 1-.04-.775l1.356-2.62 1.356 2.62a.776.776 0 0 1-.041.775Z" stroke="url(#b)" mask="url(#c)"/><defs><linearGradient id="a" x1="-6.123" y1="-6.429" x2="57.164" y2="69.006" gradientUnits="userSpaceOnUse"><stop stop-color="#1C2D5A"/><stop offset="1" stop-color="#4FC3DD" stop-opacity=".96"/></linearGradient><linearGradient id="b" x1="24.513" y1="1" x2="24.513" y2="48.467" gradientUnits="userSpaceOnUse"><stop stop-color="#1C2D5A"/><stop offset="1" stop-color="#4FC3DD"/></linearGradient></defs></svg>
